X: 52111
T: the Bon Viveur
O: traditional
R: strathspey+reel
Z: 2019 John Chambers <jc:trillian.mit.edu>
P: Captain Campbell
S: RSCDS 52-11 #1
M: 4/4
L: 1/8
K: Am
|: A |\
"Am"E<A A>B c>A B<G | "G"D<G G>A B>d c/B/A/G/ |\
"Am"E<A A>B "Dm7"c>B c<e | "G"d>B "Em7"g>B "Am"A3 :|
B |\
"Am"A<a a>g e>d c<e | "G"d>e g>e d/c/B/A/ G<B |\
"Am"A<a a>g e>d c<e | "G"d>B "Em7"g>B "Am"A2A ||
e |\
"Am"A<a a>g e>d c<e | "G"d>e g>e d/c/B/A/ G<B |\
"Am"c<A "B/G"d>B "C"e>d c<e | "G"d>B "Em7"g>B "Am"A2A |]
